svg/SJJB-OpenStreetMapIcons/transport/bus_station.svg

<?xml version="1.0" encoding="UTF-8" standalone="no"?>
<!-- Created with Inkscape (http://www.inkscape.org/) -->
<svg
   xmlns:dc="http://purl.org/dc/elements/1.1/"
   xmlns:cc="http://creativecommons.org/ns#"
   xmlns:rdf="http://www.w3.org/1999/02/22-rdf-syntax-ns#"
   xmlns:svg="http://www.w3.org/2000/svg"
   xmlns="http://www.w3.org/2000/svg"
   xmlns:sodipodi="http://sodipodi.sourceforge.net/DTD/sodipodi-0.dtd"
   xmlns:inkscape="http://www.inkscape.org/namespaces/inkscape"
   version="1.0"
   width="580"
   height="580"
   id="svg2"
   sodipodi:version="0.32"
   inkscape:version="0.46"
   sodipodi:docname="transport_bus_station.svg"
   sodipodi:docbase="s:\Data\FacilityIcons"
   inkscape:output_extension="org.inkscape.output.svg.inkscape">
  <metadata
     id="metadata1976">
    <rdf:RDF>
      <cc:Work
         rdf:about="">
        <dc:format>image/svg+xml</dc:format>
        <dc:type
           rdf:resource="http://purl.org/dc/dcmitype/StillImage" />
        <cc:license
           rdf:resource="http://web.resource.org/cc/PublicDomain" />
        <dc:language>en</dc:language>
      </cc:Work>
    </rdf:RDF>
  </metadata>
  <sodipodi:namedview
     inkscape:window-height="1003"
     inkscape:window-width="1400"
     inkscape:pageshadow="2"
     inkscape:pageopacity="0.0"
     guidetolerance="10.0"
     gridtolerance="10.0"
     objecttolerance="10.0"
     borderopacity="1.0"
     bordercolor="#666666"
     pagecolor="#ffffff"
     id="base"
     inkscape:zoom="0.65172414"
     inkscape:cx="242.43387"
     inkscape:cy="186.81904"
     inkscape:window-x="-4"
     inkscape:window-y="-4"
     inkscape:current-layer="svg2"
     showgrid="false" />
  <defs
     id="defs4">
    <inkscape:perspective
       sodipodi:type="inkscape:persp3d"
       inkscape:vp_x="0 : 290 : 1"
       inkscape:vp_y="0 : 1000 : 0"
       inkscape:vp_z="580 : 290 : 1"
       inkscape:persp3d-origin="290 : 193.33333 : 1"
       id="perspective3653" />
    <marker
       viewBox="0 0 10 10"
       refY="5"
       refX="10"
       orient="auto"
       markerWidth="4"
       markerUnits="strokeWidth"
       markerHeight="3"
       id="ArrowStart">
      <path
         id="path2111"
         d="M 10 0 L 0 5 L 10 10 z" />
    </marker>
    <marker
       viewBox="0 0 10 10"
       refY="5"
       refX="0"
       orient="auto"
       markerWidth="4"
       markerUnits="strokeWidth"
       markerHeight="3"
       id="ArrowEnd">
      <path
         id="path2108"
         d="M 0 0 L 10 5 L 0 10 z" />
    </marker>
    <inkscape:perspective
       id="perspective2512"
       inkscape:persp3d-origin="177.51199 : 145.02 : 1"
       inkscape:vp_z="355.02399 : 217.53 : 1"
       inkscape:vp_y="0 : 1000 : 0"
       inkscape:vp_x="0 : 217.53 : 1"
       sodipodi:type="inkscape:persp3d" />
  </defs>
  <g
     id="g1327">
    <path
       d="M 66.275,1.768 C 24.94,1.768 1.704,23.139 1.704,66.804 L 1.704,516.927 C 1.704,557.771 22.6,579.156 63.896,579.156 L 515.92,579.156 C 557.227,579.156 578.149,558.842 578.149,516.927 L 578.149,66.804 C 578.149,24.203 557.227,1.768 514.628,1.768 C 514.624,1.768 66.133,1.625 66.275,1.768 z "
       style="fill:#111;stroke:#eee;stroke-width:3.40799999"
       id="path1329" />
  </g>
  <path
     style="fill:#ffffff;stroke:none"
     d="M 289.075,74.970939 C 289.60491,74.970939 290.15544,74.991208 290.69088,74.995422 C 291.23004,74.99115 291.77323,74.970939 292.30677,74.970939 L 289.075,74.970939 z M 290.69088,74.995422 C 253.06535,75.29353 202.08803,85.88773 180.81067,94.75329 C 159.22842,103.7459 144.83592,112.74284 140.34008,135.22388 L 124.15675,259.86741 L 124.15675,431.59197 L 152.04301,431.59197 L 152.04301,458.52339 C 152.04301,491.36026 200.07888,491.36024 200.07888,458.52339 L 200.07888,431.59197 L 288.80568,431.59197 L 289.075,431.59197 L 381.30289,431.59197 L 381.30289,458.52339 C 381.30289,491.36026 429.36324,491.36024 429.36324,458.52339 L 429.36324,431.59197 L 457.2495,431.59197 L 457.2495,259.86741 L 441.06617,135.22388 C 436.57033,112.74284 422.17784,103.7459 400.59558,94.75329 C 379.31614,85.88686 328.31748,75.291548 290.69088,74.995422 z M 222.18713,106.45622 L 289.075,106.45622 L 359.21912,106.45622 C 372.70849,106.45623 372.7085,126.67927 359.21912,126.67927 L 288.9281,126.67927 L 222.18713,126.67927 C 208.69776,126.67927 208.69775,106.45622 222.18713,106.45622 z M 185.80523,147.12267 L 288.9281,147.12267 L 395.57654,147.12267 C 409.82585,147.12267 413.55543,154.35559 415.28545,165.33811 L 427.89425,255.72977 C 429.06887,264.39401 426.54587,272.99035 414.57544,272.99036 L 289.075,272.99036 L 166.80633,272.99036 C 154.83589,272.99036 152.33738,264.394 153.512,255.72977 L 166.1208,165.33811 C 167.85084,154.35559 171.5559,147.12267 185.80523,147.12267 z M 176.08543,331.6519 C 188.81487,331.65189 199.12404,341.98555 199.12404,354.71499 C 199.12404,367.44444 188.81487,377.7536 176.08543,377.7536 C 163.35599,377.75361 153.02234,367.44443 153.02234,354.71499 C 153.02234,341.98556 163.35599,331.6519 176.08543,331.6519 z M 405.32082,331.6519 C 418.05026,331.6519 428.35942,341.98556 428.35943,354.71499 C 428.35943,367.44443 418.05026,377.75361 405.32082,377.7536 C 392.59138,377.7536 382.25772,367.44444 382.25773,354.71499 C 382.25773,341.98555 392.59139,331.65189 405.32082,331.6519 z"
     id="path2115" />
  <g
     id="g2117"
     transform="matrix(1.1975036,0,0,1.1975036,80.128205,34.575832)"
     style="fill:#000000">
    <g
       id="g2119"
       style="fill:#000000">
      <g
         id="g2121"
         style="fill:#000000">
        <path
           id="path2125"
           style="fill:#000000;stroke:none"
           d="" />
      </g>
      <g
         id="g2127"
         style="fill:#000000">
        <path
           id="path2131"
           style="fill:#000000;stroke:none"
           d="" />
      </g>
    </g>
  </g>
  <path
     transform="matrix(0.9469422,0,0,0.9469422,84.843881,0.5062342)"
     d="M 505.71429,305.71429 A 288.57144,288.57144 0 1 1 -71.428589,305.71429 A 288.57144,288.57144 0 1 1 505.71429,305.71429 z"
     sodipodi:ry="288.57144"
     sodipodi:rx="288.57144"
     sodipodi:cy="305.71429"
     sodipodi:cx="217.14285"
     id="path3267"
     style="opacity:0.1;fill:#ffffff;fill-opacity:1;stroke:#ffffff;stroke-width:25.1376152;stroke-miterlimit:4;stroke-dasharray:none;stroke-dashoffset:0;stroke-opacity:1"
     sodipodi:type="arc" />
  <path
     sodipodi:type="arc"
     style="opacity:1;fill:none;fill-opacity:1;stroke:#ffffff;stroke-width:25.13761519999999900;stroke-miterlimit:4;stroke-dasharray:none;stroke-dashoffset:0;stroke-opacity:1"
     id="path3276"
     sodipodi:cx="217.14285"
     sodipodi:cy="305.71429"
     sodipodi:rx="288.57144"
     sodipodi:ry="288.57144"
     d="M 505.71429,305.71429 A 288.57144,288.57144 0 1 1 -71.428589,305.71429 A 288.57144,288.57144 0 1 1 505.71429,305.71429 z"
     transform="matrix(0.9469422,0,0,0.9469422,84.843881,0.5062342)" />
</svg>

<svg xmlns="http://www.w3.org/2000/svg" viewBox="0 0 580 580"><path d="m66.28 1.768c-41.34 0-64.57 21.371-64.57 65.04v450.12c0 40.844 20.896 62.23 62.19 62.23h452.02c41.31 0 62.23-20.314 62.23-62.23v-450.12c0-42.601-20.922-65.04-63.52-65.04-.004 0-448.5-.143-448.35 0z" fill="#111" stroke="#eee" stroke-width="3.408"/><g fill="#fff"><path d="m289.07 74.971c.53 0 1.08.02 1.616.024.539-.004 1.082-.024 1.616-.024h-3.232m1.616.024c-37.626.298-88.6 10.892-109.88 19.758-21.582 8.993-35.975 17.99-40.471 40.471l-16.183 124.64v171.72h27.886v26.931c0 32.837 48.04 32.837 48.04 0v-26.931h88.73.269 92.23v26.931c0 32.837 48.06 32.837 48.06 0v-26.931h27.886v-171.72l-16.183-124.64c-4.496-22.481-18.888-31.478-40.471-40.471-21.279-8.866-72.28-19.462-109.9-19.758m-68.5 31.461h66.888 70.14c13.489 0 13.489 20.223 0 20.223h-70.29-66.741c-13.489 0-13.489-20.223 0-20.223m-36.38 40.666h103.12 106.65c14.249 0 17.979 7.233 19.709 18.215l12.609 90.39c1.175 8.664-1.348 17.261-13.319 17.261h-125.5-122.27c-11.97 0-14.469-8.596-13.294-17.261l12.609-90.39c1.73-10.983 5.435-18.215 19.684-18.215m-9.72 184.53c12.729 0 23.04 10.334 23.04 23.06 0 12.729-10.309 23.04-23.04 23.04-12.729 0-23.06-10.309-23.06-23.04 0-12.729 10.334-23.06 23.06-23.06m229.24 0c12.729 0 23.04 10.334 23.04 23.06 0 12.729-10.309 23.04-23.04 23.04-12.729 0-23.06-10.309-23.06-23.04 0-12.729 10.334-23.06 23.06-23.06"/><path transform="matrix(.94694 0 0 .94694 84.84.506)" d="M505.71429 305.71429A288.57144 288.57144 0 1 1 -71.42859 305.71429 288.57144 288.57144 0 1 1 505.71429 305.71429z" opacity=".1" stroke="#fff" stroke-width="25.14"/></g><path d="M505.71429 305.71429A288.57144 288.57144 0 1 1 -71.42859 305.71429 288.57144 288.57144 0 1 1 505.71429 305.71429z" transform="matrix(.94694 0 0 .94694 84.84.506)" fill="none" stroke="#fff" stroke-width="25.14"/></svg>
